apps/www/public/images/logos/publicity/nextdoorlending.svg

<svg width="123" height="60" viewBox="0 0 123 60" fill="none" xmlns="http://www.w3.org/2000/svg">
<path d="M19.8072 31.7968L13.9369 23.0517V31.7968H10.4255V17.62H13.9369L19.8072 26.4051V17.62H23.3185V31.7968H19.8072Z" fill="#7E7E7E"/>
<path d="M36.5964 26.9921H28.6519C28.706 27.691 28.9366 28.2273 29.3405 28.5981C29.7446 28.9689 30.2407 29.153 30.8291 29.153C31.7049 29.153 32.3151 28.7901 32.6567 28.0619H36.3931C36.2005 28.8035 35.8562 29.4678 35.3573 30.06C34.8584 30.6523 34.232 31.1165 33.4783 31.4526C32.7245 31.7888 31.8839 31.9568 30.9538 31.9568C29.8313 31.9568 28.8335 31.7221 27.9577 31.2499C27.0819 30.7777 26.3986 30.1054 25.9052 29.2304C25.4116 28.3553 25.1649 27.3308 25.1649 26.1597C25.1649 24.9885 25.4089 23.9641 25.8943 23.089C26.3796 22.214 27.0602 21.5417 27.936 21.0695C28.8091 20.6026 29.8151 20.3679 30.9511 20.3679C32.0602 20.3679 33.0444 20.5973 33.9066 21.0535C34.7689 21.5123 35.4413 22.1633 35.9294 23.0117C36.4147 23.86 36.6588 24.8498 36.6588 25.9809C36.6588 26.3037 36.6371 26.6399 36.5964 26.9921ZM33.0661 25.0712C33.0661 24.479 32.86 24.0068 32.4506 23.6573C32.0411 23.3078 31.526 23.1317 30.9105 23.1317C30.3221 23.1317 29.8259 23.2998 29.4219 23.6359C29.0179 23.9721 28.7684 24.4496 28.6735 25.0712H33.0661Z" fill="#7E7E7E"/>
<path d="M45.2786 31.7968L43.0822 28.6674L41.2358 31.7968H37.4397L41.2167 26.0397L37.3367 20.5279H41.2791L43.4754 23.6386L45.3219 20.5279H49.1179L45.2786 26.2024L49.221 31.7968H45.2786Z" fill="#7E7E7E"/>
<path d="M56.9595 28.8702V31.7995H55.1727C53.901 31.7995 52.9086 31.4926 52.1955 30.8817C51.4851 30.2681 51.1272 29.2703 51.1272 27.8831V23.3958H49.7307V20.5279H51.1272V17.7827H54.6385V20.5306H56.9378V23.3985H54.6385V27.9232C54.6385 28.2592 54.7198 28.502 54.8852 28.6514C55.0506 28.8008 55.3218 28.8728 55.7068 28.8728H56.9595V28.8702Z" fill="#7E7E7E"/>
<path d="M72.6427 18.5084C73.7788 19.1006 74.6573 19.933 75.2809 21.0028C75.9046 22.0726 76.2137 23.3078 76.2137 24.7084C76.2137 26.0957 75.9019 27.3282 75.2809 28.4033C74.6573 29.4811 73.7761 30.3161 72.6318 30.9084C71.4903 31.5007 70.1644 31.7968 68.6595 31.7968H63.261V17.62H68.6595C70.178 17.62 71.5066 17.9161 72.6427 18.5084ZM71.5337 27.739C72.274 27.0267 72.6427 26.0156 72.6427 24.7084C72.6427 23.4038 72.274 22.3847 71.5337 21.6591C70.7934 20.9308 69.7604 20.5679 68.4345 20.5679H66.7697V28.8089H68.4318C69.7604 28.8089 70.7934 28.4513 71.5337 27.739Z" fill="#7E7E7E"/>
<path d="M110.106 20.9414C110.722 20.5839 111.406 20.4052 112.159 20.4052V24.0601H111.194C110.318 24.0601 109.662 24.2442 109.223 24.615C108.783 24.9858 108.567 25.6341 108.567 26.5652V31.7968H105.055V20.5279H108.567V22.4061C108.979 21.7871 109.491 21.2989 110.106 20.9414Z" fill="#7E7E7E"/>
<path d="M27.4589 41.0488H29.6661V42.3293H25.7751V35.5238H27.4589V41.0488Z" fill="#7E7E7E"/>
<path d="M37.0819 36.8523V38.2289H39.3379V39.5095H37.0819V41.0034H39.6334V42.332H35.3981V35.5238H39.6334V36.8523H37.0819Z" fill="#7E7E7E"/>
<path d="M51.8403 42.3293H50.1565L47.3393 38.1329V42.3293H45.6555V35.5238H47.3393L50.1565 39.7389V35.5238H51.8403V42.3293Z" fill="#7E7E7E"/>
<path d="M62.4883 35.9506C63.0333 36.2361 63.4563 36.6336 63.7545 37.1485C64.0528 37.6633 64.2019 38.2556 64.2019 38.9279C64.2019 39.5949 64.0528 40.1844 63.7545 40.702C63.4563 41.2196 63.0333 41.6197 62.4829 41.9052C61.9352 42.1906 61.298 42.332 60.5768 42.332H57.9845V35.5238H60.5768C61.3061 35.5238 61.9433 35.6678 62.4883 35.9506ZM61.9568 40.3819C62.3121 40.0404 62.4883 39.5548 62.4883 38.9279C62.4883 38.3009 62.3121 37.8127 61.9568 37.4633C61.6017 37.1138 61.1055 36.9403 60.4683 36.9403H59.6711V40.8941H60.4683C61.1082 40.8941 61.6017 40.7233 61.9568 40.3819Z" fill="#7E7E7E"/>
<path d="M71.7588 35.5238V42.3293H70.075V35.5238H71.7588Z" fill="#7E7E7E"/>
<path d="M84.0932 42.3293H82.4094L79.5922 38.1329V42.3293H77.9084V35.5238H79.5922L82.4094 39.7389V35.5238H84.0932V42.3293Z" fill="#7E7E7E"/>
<path d="M94.8306 37.6766C94.706 37.4499 94.5265 37.2765 94.2936 37.1591C94.0607 37.0391 93.7868 36.9803 93.4719 36.9803C92.9272 36.9803 92.4907 37.1564 92.1627 37.5086C91.8346 37.8608 91.669 38.3303 91.669 38.9198C91.669 39.5468 91.8423 40.035 92.1867 40.3872C92.531 40.7394 93.0061 40.9154 93.6104 40.9154C94.0251 40.9154 94.3749 40.8114 94.6596 40.6059C94.9444 40.4005 95.1533 40.1017 95.2864 39.7149H93.1492V38.493H96.8153V40.035C96.6908 40.4485 96.4788 40.8327 96.1809 41.1875C95.8822 41.5423 95.503 41.8305 95.0419 42.0493C94.5807 42.268 94.063 42.38 93.4858 42.38C92.8026 42.38 92.1921 42.2333 91.6582 41.9399C91.1243 41.6464 90.7064 41.2382 90.4078 40.7127C90.1099 40.1897 89.9605 39.5922 89.9605 38.9198C89.9605 38.2476 90.1099 37.6473 90.4078 37.1218C90.7064 36.5962 91.1212 36.1854 91.6551 35.8919C92.1866 35.5984 92.7941 35.4517 93.4773 35.4517C94.3045 35.4517 95.0039 35.6491 95.5703 36.044C96.1375 36.4388 96.5143 36.983 96.6985 37.682H94.8306V37.6766Z" fill="#7E7E7E"/>
<path d="M88.8168 23.3478C88.293 22.4594 87.5746 21.7764 86.6636 21.3016C85.7525 20.8267 84.7303 20.5893 83.5996 20.5893C82.4689 20.5893 81.4467 20.8267 80.5357 21.3016C79.6246 21.7764 78.9061 22.4594 78.3828 23.3478C77.8595 24.2362 77.5965 25.266 77.5965 26.4345C77.5965 27.6163 77.8541 28.6488 78.372 29.5291C78.8898 30.4122 79.6002 31.0898 80.5032 31.5647C81.4061 32.0395 82.4256 32.277 83.5562 32.277C84.6869 32.277 85.7119 32.0395 86.631 31.5647C87.5475 31.0898 88.2744 30.4069 88.8052 29.5185C89.3368 28.6301 89.603 27.6003 89.603 26.4318C89.603 25.266 89.3399 24.2388 88.8168 23.3478ZM86.9104 29.6679H84.5811V27.2214H82.6208V29.6679H80.2916V25.7809L83.5996 23.6919L86.9076 25.7809V29.6679H86.9104ZM87.599 25.346C87.5258 25.458 87.4011 25.5194 87.2763 25.5194C87.2031 25.5194 87.1327 25.5007 87.0676 25.458L83.5996 23.2411L80.1317 25.458C79.9527 25.5728 79.7141 25.5221 79.6002 25.346C79.4836 25.1699 79.5352 24.9351 79.7141 24.8231L83.3909 22.4727C83.5183 22.39 83.6837 22.39 83.8111 22.4727L87.4879 24.8231C87.6641 24.9378 87.7156 25.1726 87.599 25.346Z" fill="#7E7E7E"/>
<path d="M102.325 23.3478C101.801 22.4594 101.083 21.7764 100.172 21.3016C99.2612 20.8267 98.2391 20.5893 97.1078 20.5893C95.9773 20.5893 94.9552 20.8267 94.0445 21.3016C93.133 21.7764 92.4149 22.4594 91.8911 23.3478C91.368 24.2362 91.1049 25.266 91.1049 26.4345C91.1049 27.6163 91.3626 28.6488 91.8802 29.5291C92.3986 30.4122 93.109 31.0898 94.012 31.5647C94.9142 32.0395 95.934 32.277 97.0645 32.277C98.1957 32.277 99.2202 32.0395 100.139 31.5647C101.056 31.0898 101.783 30.4069 102.315 29.5185C102.845 28.6301 103.111 27.6003 103.111 26.4318C103.111 25.266 102.848 24.2388 102.325 23.3478ZM100.419 29.6679H98.0866V27.2214H96.1267V29.6679H93.7976V25.7809L97.1055 23.6919L100.413 25.7809V29.6679H100.419ZM101.107 25.346C101.035 25.458 100.909 25.5194 100.785 25.5194C100.712 25.5194 100.641 25.5007 100.576 25.458L97.1078 23.2411L93.6405 25.458C93.461 25.5728 93.2227 25.5221 93.109 25.346C92.9921 25.1699 93.044 24.9351 93.2227 24.8231L96.8997 22.4727C97.0266 22.39 97.1921 22.39 97.3198 22.4727L100.996 24.8231C101.172 24.9378 101.224 25.1726 101.107 25.346Z" fill="#7E7E7E"/>
</svg>

<svg xmlns="http://www.w3.org/2000/svg" width="123" height="60" fill="none" viewBox="0 0 123 60"><path fill="#7e7e7e" d="m19.807 31.797-5.87-8.745v8.745h-3.511V17.62h3.51l5.871 8.785V17.62h3.512v14.177zM36.596 26.992h-7.944q.082 1.049.688 1.606.606.555 1.49.555 1.313 0 1.827-1.091h3.736a5 5 0 0 1-1.036 1.998 5.2 5.2 0 0 1-1.879 1.393q-1.13.504-2.524.504-1.683 0-2.996-.707a5.1 5.1 0 0 1-2.053-2.02q-.74-1.314-.74-3.07 0-1.758.73-3.071a5 5 0 0 1 2.041-2.02q1.311-.7 3.015-.701 1.663.001 2.956.686a5 5 0 0 1 2.022 1.958q.73 1.272.73 2.969 0 .484-.063 1.011m-3.53-1.92q0-.89-.615-1.415-.616-.525-1.54-.525-.883 0-1.49.504-.605.504-.747 1.435zM45.279 31.797l-2.197-3.13-1.846 3.13H37.44l3.777-5.757-3.88-5.512h3.942l2.196 3.11 1.847-3.11h3.796l-3.84 5.674 3.943 5.595zM56.96 28.87v2.93h-1.787q-1.908 0-2.977-.918-1.067-.92-1.069-2.999v-4.487h-1.396v-2.868h1.396v-2.745h3.511v2.748h2.3v2.867h-2.3v4.525q0 .504.247.728c.166.15.437.222.822.222h1.252zM72.643 18.508q1.703.89 2.638 2.495t.933 3.705q0 2.082-.933 3.695-.934 1.617-2.65 2.505c-1.14.593-2.467.889-3.972.889h-5.398V17.62h5.398q2.28 0 3.984.888m-1.11 9.231q1.11-1.069 1.11-3.03t-1.11-3.05q-1.11-1.092-3.099-1.091H66.77v8.24h1.662q1.991 0 3.102-1.069M110.106 20.941a4 4 0 0 1 2.053-.536v3.655h-.965q-1.313 0-1.971.555t-.656 1.95v5.232h-3.512v-11.27h3.512v1.88a4.6 4.6 0 0 1 1.539-1.466M27.459 41.049h2.207v1.28h-3.89v-6.805h1.683zM37.082 36.852v1.377h2.256v1.28h-2.256v1.494h2.551v1.329h-4.235v-6.808h4.235v1.328zM51.84 42.33h-1.684l-2.817-4.197v4.196h-1.683v-6.805h1.683l2.818 4.215v-4.215h1.683zM62.488 35.95q.818.428 1.267 1.198.447.772.447 1.78 0 .999-.447 1.774a3.05 3.05 0 0 1-1.272 1.203q-.823.428-1.906.427h-2.593v-6.808h2.593q1.094.001 1.911.427m-.531 4.432q.532-.513.531-1.454 0-.94-.531-1.465-.533-.524-1.489-.523h-.797v3.954h.797q.958 0 1.489-.512M71.759 35.524v6.805h-1.684v-6.805zM84.093 42.33H82.41l-2.817-4.197v4.196h-1.684v-6.805h1.684l2.817 4.215v-4.215h1.684zM94.83 37.677a1.23 1.23 0 0 0-.536-.518 1.8 1.8 0 0 0-.822-.179q-.817 0-1.31.529-.492.527-.493 1.41 0 .941.518 1.468.517.528 1.423.528.623 0 1.05-.31.426-.308.626-.89H93.15v-1.222h3.666v1.542a3.2 3.2 0 0 1-.634 1.153 3.3 3.3 0 0 1-1.14.861q-.69.33-1.555.331-1.026 0-1.828-.44a3.16 3.16 0 0 1-1.25-1.227q-.448-.784-.448-1.793 0-1.01.448-1.798a3.16 3.16 0 0 1 1.247-1.23q.799-.44 1.822-.44 1.243 0 2.093.592.852.591 1.129 1.638H94.83zM88.817 23.348a5.3 5.3 0 0 0-2.153-2.046q-1.369-.713-3.064-.713-1.697 0-3.064.713a5.3 5.3 0 0 0-2.153 2.046q-.785 1.333-.786 3.087-.001 1.773.775 3.094a5.26 5.26 0 0 0 2.131 2.036q1.356.711 3.053.712 1.696 0 3.075-.712a5.36 5.36 0 0 0 2.174-2.047q.798-1.333.798-3.086 0-1.748-.786-3.084m-1.907 6.32h-2.329V27.22h-1.96v2.447h-2.33V25.78l3.309-2.09 3.308 2.09v3.887zm.689-4.322a.386.386 0 0 1-.531.112L83.6 23.241l-3.468 2.217a.386.386 0 0 1-.532-.112.37.37 0 0 1 .114-.523l3.677-2.35a.39.39 0 0 1 .42 0l3.677 2.35c.176.115.228.35.111.523M102.325 23.348a5.3 5.3 0 0 0-2.153-2.046q-1.366-.713-3.064-.713-1.696 0-3.064.713a5.3 5.3 0 0 0-2.153 2.046q-.785 1.333-.786 3.087 0 1.773.775 3.094a5.27 5.27 0 0 0 2.132 2.036q1.355.711 3.052.712 1.697 0 3.075-.712a5.37 5.37 0 0 0 2.176-2.047q.796-1.333.796-3.086 0-1.748-.786-3.084m-1.906 6.32h-2.332V27.22h-1.96v2.447h-2.33V25.78l3.309-2.09 3.307 2.09v3.887zm.688-4.322a.385.385 0 0 1-.531.112l-3.468-2.217-3.468 2.217a.386.386 0 0 1-.531-.112.37.37 0 0 1 .114-.523l3.677-2.35a.39.39 0 0 1 .42 0l3.676 2.35c.176.115.228.35.111.523"/></svg>
